src/icons/remove-ticket.svg

<?xml version="1.0" encoding="UTF-8"?>
<svg xmlns="http://www.w3.org/2000/svg" xmlns:xlink="http://www.w3.org/1999/xlink" width="32" height="32" viewBox="0 0 32 32" version="1.1">
<g id="surface1">
<path style=" stroke:none;fill-rule:nonzero;fill:rgb(0%,0%,0%);fill-opacity:1;" d="M 21.121094 0.0585938 C 20.640625 0.0585938 20.183594 0.242188 19.839844 0.578125 L 16.398438 3.980469 L 17.28125 4.859375 C 17.53125 5.109375 17.53125 5.511719 17.28125 5.761719 C 17.167969 5.886719 17.007812 5.957031 16.839844 5.960938 C 16.667969 5.957031 16.5 5.886719 16.378906 5.761719 L 15.5 4.878906 L 0.5 19.78125 C 0.164062 20.117188 -0.0195312 20.566406 -0.0195312 21.058594 C -0.0195312 21.550781 0.164062 22.003906 0.5 22.339844 L 2.5 24.320312 C 2.730469 24.550781 3.085938 24.585938 3.339844 24.378906 C 3.949219 23.890625 4.660156 23.621094 5.320312 23.621094 C 6.980469 23.621094 8.320312 24.960938 8.320312 26.621094 C 8.320312 27.347656 8.050781 28.035156 7.578125 28.558594 C 7.351562 28.8125 7.378906 29.199219 7.621094 29.441406 L 9.601562 31.421875 C 9.9375 31.757812 10.390625 31.960938 10.878906 31.960938 C 11.371094 31.960938 11.824219 31.757812 12.160156 31.421875 L 17.960938 25.621094 C 18.296875 29.191406 21.300781 32 24.960938 32 C 28.839844 32 32 28.839844 32 24.960938 C 32 21.300781 29.191406 18.296875 25.621094 17.960938 L 27.101562 16.480469 L 26.238281 15.621094 C 26.117188 15.5 26.050781 15.339844 26.050781 15.167969 C 26.050781 15 26.117188 14.835938 26.238281 14.71875 C 26.488281 14.46875 26.890625 14.46875 27.140625 14.71875 L 28 15.578125 L 31.398438 12.199219 C 31.753906 11.917969 31.96875 11.480469 32 11.019531 C 32.039062 10.511719 31.859375 10.019531 31.5 9.660156 L 29.5 7.679688 C 29.277344 7.445312 28.914062 7.421875 28.660156 7.621094 C 28.085938 8.078125 27.449219 8.320312 26.761719 8.320312 C 25.101562 8.320312 23.738281 6.980469 23.738281 5.320312 C 23.738281 4.628906 23.980469 3.972656 24.441406 3.398438 C 24.636719 3.140625 24.609375 2.78125 24.378906 2.558594 L 22.398438 0.578125 C 22.058594 0.242188 21.597656 0.0546875 21.121094 0.0585938 M 18.621094 6.460938 C 18.78125 6.460938 18.953125 6.53125 19.078125 6.660156 L 19.980469 7.558594 C 20.230469 7.808594 20.230469 8.210938 19.980469 8.460938 C 19.855469 8.578125 19.691406 8.640625 19.519531 8.640625 C 19.355469 8.640625 19.195312 8.578125 19.078125 8.460938 L 18.179688 7.558594 C 18.058594 7.4375 17.992188 7.277344 17.992188 7.109375 C 17.992188 6.9375 18.058594 6.777344 18.179688 6.65625 C 18.292969 6.535156 18.453125 6.460938 18.621094 6.457031 M 21.320312 9.15625 C 21.484375 9.15625 21.65625 9.210938 21.78125 9.335938 L 22.679688 10.234375 C 22.929688 10.492188 22.929688 10.902344 22.679688 11.15625 C 22.554688 11.277344 22.390625 11.339844 22.21875 11.335938 C 22.046875 11.339844 21.882812 11.277344 21.761719 11.15625 L 20.859375 10.257812 C 20.609375 10.003906 20.609375 9.59375 20.859375 9.335938 C 20.984375 9.21875 21.148438 9.152344 21.320312 9.15625 M 24.019531 11.855469 C 24.183594 11.851562 24.34375 11.917969 24.460938 12.035156 L 25.359375 12.9375 C 25.609375 13.1875 25.609375 13.585938 25.359375 13.835938 C 25.246094 13.960938 25.089844 14.03125 24.921875 14.035156 C 24.746094 14.03125 24.582031 13.960938 24.460938 13.835938 L 23.558594 12.9375 C 23.4375 12.816406 23.371094 12.65625 23.371094 12.484375 C 23.371094 12.316406 23.4375 12.15625 23.558594 12.035156 C 23.683594 11.910156 23.859375 11.855469 24.019531 11.855469 M 24.957031 19.195312 C 26.488281 19.191406 27.953125 19.800781 29.035156 20.878906 C 30.113281 21.960938 30.71875 23.429688 30.71875 24.957031 C 30.71875 26.484375 30.113281 27.949219 29.035156 29.03125 C 27.953125 30.113281 26.488281 30.71875 24.960938 30.714844 C 23.429688 30.71875 21.964844 30.113281 20.882812 29.03125 C 19.800781 27.953125 19.195312 26.484375 19.195312 24.957031 C 19.195312 23.429688 19.800781 21.960938 20.882812 20.878906 C 21.964844 19.800781 23.429688 19.191406 24.960938 19.195312 M 22.660156 22.054688 C 22.632812 22.0625 22.605469 22.070312 22.578125 22.074219 C 22.339844 22.117188 22.144531 22.292969 22.078125 22.527344 C 22.011719 22.761719 22.082031 23.011719 22.261719 23.175781 L 24.039062 24.957031 L 22.261719 26.734375 C 22.136719 26.855469 22.066406 27.023438 22.066406 27.195312 C 22.066406 27.367188 22.136719 27.535156 22.261719 27.65625 C 22.382812 27.777344 22.546875 27.847656 22.71875 27.847656 C 22.890625 27.847656 23.058594 27.777344 23.179688 27.65625 L 24.960938 25.875 L 26.738281 27.65625 C 26.992188 27.910156 27.402344 27.910156 27.660156 27.65625 C 27.914062 27.402344 27.914062 26.988281 27.660156 26.734375 L 25.878906 24.957031 L 27.660156 23.175781 C 27.867188 22.984375 27.921875 22.679688 27.796875 22.425781 C 27.671875 22.171875 27.398438 22.03125 27.121094 22.074219 C 26.976562 22.089844 26.839844 22.15625 26.738281 22.257812 L 24.960938 24.035156 L 23.179688 22.257812 C 23.046875 22.117188 22.855469 22.039062 22.660156 22.054688 M 22.660156 22.054688 "/>
</g>
</svg>

<svg role="img" viewBox="0 0 32 32" xmlns="http://www.w3.org/2000/svg"><path d="M21.121.059a1.82 1.82 0 0 0-1.281.52L16.398 3.98l.883.88c.25.25.25.652 0 .902a.625.625 0 0 1-.441.199.67.67 0 0 1-.461-.2L15.5 4.88l-15 14.9c-.336.336-.52.785-.52 1.278 0 .492.184.945.52 1.28l2 1.981c.23.23.586.266.84.059.61-.488 1.32-.758 1.98-.758 1.66 0 3 1.34 3 3 0 .727-.27 1.414-.742 1.938-.226.253-.2.64.043.882l1.98 1.98c.336.337.79.54 1.278.54.492 0 .945-.203 1.281-.54l5.8-5.8c.337 3.57 3.34 6.379 7 6.379 3.88 0 7.04-3.16 7.04-7.04 0-3.66-2.809-6.663-6.379-7l1.48-1.48-.863-.859a.637.637 0 0 1 0-.902c.25-.25.653-.25.903 0l.859.86 3.398-3.38c.356-.281.57-.719.602-1.18.04-.507-.14-1-.5-1.359l-2-1.98a.626.626 0 0 0-.84-.059c-.574.457-1.21.7-1.898.7-1.66 0-3.024-1.34-3.024-3 0-.692.242-1.348.703-1.923a.63.63 0 0 0-.062-.84l-1.98-1.98a1.816 1.816 0 0 0-1.278-.52m-2.5 6.402c.16 0 .332.074.457.2l.902.898c.25.25.25.652 0 .902a.649.649 0 0 1-.46.18.604.604 0 0 1-.442-.18l-.898-.902a.632.632 0 0 1 0-.899.625.625 0 0 1 .441-.2m2.7 2.7c.163 0 .335.054.46.179l.899.898a.66.66 0 0 1 0 .922.642.642 0 0 1-.461.18.64.64 0 0 1-.457-.18l-.903-.898a.66.66 0 0 1 0-.922.649.649 0 0 1 .461-.18m2.699 2.698a.6.6 0 0 1 .44.18l.9.902c.25.25.25.649 0 .899a.617.617 0 0 1-.438.2.662.662 0 0 1-.461-.2l-.902-.899a.637.637 0 0 1 0-.902c.125-.125.3-.18.46-.18m.94 7.34a5.752 5.752 0 0 1 5.759 5.762 5.748 5.748 0 0 1-5.758 5.758 5.752 5.752 0 0 1-5.762-5.758 5.755 5.755 0 0 1 5.762-5.762m-2.3 2.86c-.027.007-.055.015-.082.02a.64.64 0 0 0-.316 1.102l1.777 1.78-1.777 1.777a.646.646 0 0 0 0 .922.648.648 0 0 0 .918 0l1.78-1.781 1.778 1.781a.653.653 0 0 0 .922 0 .653.653 0 0 0 0-.922l-1.781-1.777 1.781-1.781a.637.637 0 0 0 .137-.75.64.64 0 0 0-.676-.352.654.654 0 0 0-.383.184l-1.777 1.777-1.781-1.777a.648.648 0 0 0-.52-.203m0 0" style="stroke:none;fill-rule:nonzero;fill:rgb(0%,0%,0%);fill-opacity:1"/></svg>
